X:1142
T:Fall of Paris.
M:2/4
L:1/16
Q:1/4=88
P:ABA
N:Aird uses a da capo
Z:Jack Campin * www.campin.me.uk * 2009
K:D
P:A
(d2d>e) (d2d>e)|(d2d>e) (gfe)d|e2e>f e2e>f|e2e>f       agfe|
 f2f>g   f2f>g | f2f>g   bagf |e2e>d e2e>d|efge        cABc|
 d2d>e   d2d>e | d2d>e   gfed |e2e>f e2e>f|e2e>f       agfe|
 f2fd    a3g   | f2fd    a3g  |fede  f2e2 |d2d2 "^Fine"d4 |]
P:B
 a8-           | a2f2````b2a2 |g2gf  g2gf |g2gf        g4  |
 g8            | g2e2````a2g2 |f2fe  f2fe |f2fe        f4 :|
(ABcd)  (cBAG) | FGAB    AGFE |d2d2``e2e2 |f2f2        e4  |
 ABcd    cBAG  | FGAB    AGFE |d2e2``f2d2 |d2d2        d4 :|
.c2.d2``.e2.f2 | g2f2````e2d2 |c2d2``e2f2 |g2f2        e4  |
(ABcd)   cBAG  | FGAB    AGFE |d2e2``f2e2 |d2d2 "^D.C."d4 :|

